TV/Source/Prima Max HD.svg

<svg height="63" viewBox="0 0 65.097484 16.668553" width="246.03773" xmlns="http://www.w3.org/2000/svg"><g fill="#d91e25"><g stroke-width=".334449"><path d="m1.3036937 7.07356-1.3036937 5.759263h5.7304995v-.789641h-3.8214478l.244986-1.544834c.088697-.5551903.4708415-1.0501792 1.3085432-1.0501792.8759297 0 1.197338.3979978 1.1618861 1.0501792l-.035452.672249h1.1414845v-1.8832996h-2.8323062l.093647-.7056936h.4991695l.00201-.00635c-.3493053-.1040191-.4631193-.3578681-.4250587-.6421523.00759-.053512.020167-.1404698.020167-.1404698h.7971997l-.01505.1839486c-.022743.2341163.020402.5852909.5592037.5852909h1.301018v-.8896422h-2.586785l.083713-.605358h2.503072v-.2408054h-2.5030717v-.779273h.3568936v-.0100336c-.2609728-.1538479-.4326135-.424754-.4326135-.7391388 0-.3210738.1058206-.5719128.4222455-.7123826-.2757221-.2010056-.4222455-.4548546-.4222455-.7993401 0-.8194073.6299402-.8695751 1.1259324-.8695751h1.4528592v-.4013089c-.1314396.1671926-.3314418.2675281-.6073647.2675281-.8505113 0-.7846242-.9096758-.9060303-1.4916556-.0304351-.1437809-.0789306-.2240828-.2404709-.2240828-.1949855 0-.2712406.2308053-.2712406.4047203 0 .2340829.1066902.3812752.3267596.4214094v.7859286c-.3414754-.0133446-.5642204-.1705705-.6985029-.3979978-.1317072-.2274273-.1819418-.5284006-.1819418-.8194072 0-.53508971.1058206-1.05683473.6376326-1.17389291h-2.4856468zm1.6934639 0-.088697.6016791h-.6733517l.1088641-.6016791zm1.7590834-5.4779883c.045485.1872931.1260884.34783.3314419.34783.2100358 0 .2963244-.163848.2963244-.3511745 0-.4046869-.2304374-.5350897-.7695739-.5184005.075921.1204027.090971.3377964.1418076.521745m-1.3087104 8.5984253c-.3441845 0-.5036512.180604-.5341198.42442l-.070803.55218h.9771682l.047827-.55218c.020401-.24716-.08863-.42442-.4200724-.42442m.4073625-6.1241498c0 .364887.2832808.3983322.7036868.3983322h1.1719196v-.7491723h-1.4274408c-.2809397 0-.4481656.1337807-.4481656.3508401m0 1.5220907c0 .3010068.1772595.4280985.7113792.4280985h1.1642272v-.7458278h-1.377273c-.3060236 0-.4983334.086958-.4983334.3177293"/><path d="m20.336016.28757028-3.480307 6.15057122-3.434822-6.05692468-.0505-.0936131h-2.761571v12.55198128h2.376615v-8.4014327l2.964248 5.2104268h1.708046l3.065586-5.2104268v8.4014327h2.396683v-12.55198128z"/><path d="m53.094245.29425597h-1.725772l-4.558579 4.56159003-4.55858-4.56159003h-1.719083v1.62195813l4.612092 4.6087478-4.612092 4.6084141v1.699015h1.672259l4.622126-4.6254703 4.62547 4.6254703h1.642159v-1.695671l-4.598714-4.5950355 4.598714-4.5990487z"/><path d="m28.649822 10.461224 3.311409-5.712105 3.306726 5.712105zm3.311409-10.46132252-7.449917 12.83626552h14.893814z"/><path d="m30.769913 16.668652h2.374943v-2.377619h-2.374943z"/></g><g transform="matrix(.3847081 0 0 .38470859 56.799215 -9.153724)"><path d="m6.634 24.542v4.0115h-3.7693v-4.0111h-2.8669v11.003h2.8669v-4.5258h3.7694v4.5258h2.8665v-11.004z" fill="#d91e25"/><path d="m11.443 24.542v11.003h4.7307c3.341 0 5.3966-1.9412 5.3966-5.5466 0-3.4098-2.0232-5.4561-5.3966-5.4561zm2.8669 2.4663h1.358c1.9559 0 3.0355.9706 3.0355 2.9713 0 2.2065-.8654 3.0541-3.0355 3.0997h-1.358z" fill="#d91e25"/></g></g></svg>

<?xml version="1.0" encoding="UTF-8" standalone="no"?>
<svg
   xmlns:dc="http://purl.org/dc/elements/1.1/"
   xmlns:cc="http://creativecommons.org/ns#"
   xmlns:rdf="http://www.w3.org/1999/02/22-rdf-syntax-ns#"
   xmlns:svg="http://www.w3.org/2000/svg"
   xmlns="http://www.w3.org/2000/svg"
   xmlns:sodipodi="http://sodipodi.sourceforge.net/DTD/sodipodi-0.dtd"
   xmlns:inkscape="http://www.inkscape.org/namespaces/inkscape"
   height="63"
   width="246.03773"
   version="1.1"
   viewBox="0 0 65.097484 16.668553"
   id="svg14"
   sodipodi:docname="Prima Max HD.svg"
   inkscape:version="0.92.0 r15299">
  <metadata
     id="metadata20">
    <rdf:RDF>
      <cc:Work
         rdf:about="">
        <dc:format>image/svg+xml</dc:format>
        <dc:type
           rdf:resource="http://purl.org/dc/dcmitype/StillImage" />
        <dc:title></dc:title>
      </cc:Work>
    </rdf:RDF>
  </metadata>
  <defs
     id="defs18" />
  <sodipodi:namedview
     pagecolor="#ffffff"
     bordercolor="#666666"
     borderopacity="1"
     objecttolerance="10"
     gridtolerance="10"
     guidetolerance="10"
     inkscape:pageopacity="0"
     inkscape:pageshadow="2"
     inkscape:window-width="1920"
     inkscape:window-height="1017"
     id="namedview16"
     showgrid="false"
     fit-margin-top="0"
     fit-margin-left="0"
     fit-margin-right="0"
     fit-margin-bottom="0"
     inkscape:zoom="3.7866667"
     inkscape:cx="123.95106"
     inkscape:cy="39.116435"
     inkscape:window-x="-8"
     inkscape:window-y="-8"
     inkscape:window-maximized="1"
     inkscape:current-layer="svg14" />
  <path
     style="fill:#d91e25;stroke-width:0.33444861"
     inkscape:connector-curvature="0"
     id="path2"
     d="M 1.3036937,7.07356 0,12.832823 H 5.7304995 V 12.043182 H 1.9090517 l 0.244986,-1.544834 c 0.088697,-0.5551903 0.4708415,-1.0501792 1.3085432,-1.0501792 0.8759297,0 1.197338,0.3979978 1.1618861,1.0501792 l -0.035452,0.672249 H 5.7304995 V 9.2872974 H 2.8981933 l 0.093647,-0.7056936 h 0.4991695 l 0.00201,-0.00635 C 3.1437145,8.4712347 3.0299005,8.2173857 3.0679611,7.9331015 c 0.00759,-0.053512 0.020167,-0.1404698 0.020167,-0.1404698 h 0.7971997 l -0.01505,0.1839486 c -0.022743,0.2341163 0.020402,0.5852909 0.5592037,0.5852909 h 1.301018 V 7.672229 h -2.586785 l 0.083713,-0.605358 h 2.503072 V 6.8260656 H 3.2274278 V 6.0467926 H 3.5843214 V 6.036759 C 3.3233486,5.8829111 3.1517079,5.612005 3.1517079,5.2976202 c 0,-0.3210738 0.1058206,-0.5719128 0.4222455,-0.7123826 C 3.2982313,4.384232 3.1517079,4.130383 3.1517079,3.7858975 c 0,-0.8194073 0.6299402,-0.8695751 1.1259324,-0.8695751 H 5.7304995 V 2.5150135 C 5.5990599,2.6822061 5.3990577,2.7825416 5.1231348,2.7825416 4.2726235,2.7825416 4.3385106,1.8728658 4.2171045,1.290886 4.1866694,1.1471051 4.1381739,1.0668032 3.9766336,1.0668032 c -0.1949855,0 -0.2712406,0.2308053 -0.2712406,0.4047203 0,0.2340829 0.1066902,0.3812752 0.3267596,0.4214094 V 2.6788615 C 3.6906772,2.6655169 3.4679322,2.508291 3.3336497,2.2808637 3.2019425,2.0534364 3.1517079,1.7524631 3.1517079,1.4614565 c 0,-0.53508971 0.1058206,-1.05683473 0.6376326,-1.17389291 H 1.3036937 Z m 1.6934639,0 -0.088697,0.6016791 H 2.2351089 L 2.343973,7.07356 Z M 4.756241,1.5955717 c 0.045485,0.1872931 0.1260884,0.34783 0.3314419,0.34783 0.2100358,0 0.2963244,-0.163848 0.2963244,-0.3511745 0,-0.4046869 -0.2304374,-0.5350897 -0.7695739,-0.5184005 0.075921,0.1204027 0.090971,0.3377964 0.1418076,0.521745 M 3.4475306,10.193997 c -0.3441845,0 -0.5036512,0.180604 -0.5341198,0.42442 l -0.070803,0.55218 H 3.819776 l 0.047827,-0.55218 c 0.020401,-0.24716 -0.08863,-0.42442 -0.4200724,-0.42442 M 3.8548931,4.0698472 c 0,0.364887 0.2832808,0.3983322 0.7036868,0.3983322 H 5.7304995 V 3.7190071 H 4.3030587 c -0.2809397,0 -0.4481656,0.1337807 -0.4481656,0.3508401 m 0,1.5220907 c 0,0.3010068 0.1772595,0.4280985 0.7113792,0.4280985 H 5.7304995 V 5.2742086 h -1.377273 c -0.3060236,0 -0.4983334,0.086958 -0.4983334,0.3177293" />
  <path
     style="fill:#d91e25;stroke-width:0.33444861"
     inkscape:connector-curvature="0"
     id="path4"
     d="M 20.336016,0.28757028 16.855709,6.4381415 13.420887,0.38121682 13.370387,0.28760372 H 10.608816 V 12.839585 h 2.376615 V 4.4381523 l 2.964248,5.2104268 h 1.708046 l 3.065586,-5.2104268 v 8.4014327 h 2.396683 V 0.28760372 Z" />
  <path
     style="fill:#d91e25;stroke-width:0.33444861"
     inkscape:connector-curvature="0"
     id="path6"
     d="M 53.094245,0.29425597 H 51.368473 L 46.809894,4.855846 42.251314,0.29425597 H 40.532231 V 1.9162141 l 4.612092,4.6087478 -4.612092,4.6084141 v 1.699015 h 1.672259 l 4.622126,-4.6254703 4.62547,4.6254703 h 1.642159 V 11.13672 L 48.495531,6.5416845 53.094245,1.9426358 Z" />
  <path
     style="fill:#d91e25;stroke-width:0.33444861"
     inkscape:connector-curvature="0"
     id="path8"
     d="m 28.649822,10.461224 3.311409,-5.712105 3.306726,5.712105 z M 31.961231,-9.8524433e-5 24.511314,12.836167 h 14.893814 z" />
  <path
     style="fill:#d91e25;stroke-width:0.33444861"
     inkscape:connector-curvature="0"
     id="path10"
     d="m 30.769913,16.668652 h 2.374943 v -2.377619 h -2.374943 z" />
  <g
     transform="matrix(0.3847081,0,0,0.38470859,56.799215,-9.1537238)"
     id="g4501"
     style="fill:#d91e25;fill-opacity:1">
    <path
       d="m 6.634,24.542 v 4.0115 H 2.8647 v -4.0111 h -2.8669 v 11.003 h 2.8669 v -4.5258 h 3.7694 v 4.5258 h 2.8665 v -11.004 z"
       id="path4-2"
       inkscape:connector-curvature="0"
       style="fill:#d91e25;fill-opacity:1" />
    <path
       d="m 11.443,24.542 v 11.003 h 4.7307 c 3.341,0 5.3966,-1.9412 5.3966,-5.5466 0,-3.4098 -2.0232,-5.4561 -5.3966,-5.4561 z m 2.8669,2.4663 h 1.358 c 1.9559,0 3.0355,0.9706 3.0355,2.9713 0,2.2065 -0.8654,3.0541 -3.0355,3.0997 h -1.358 z"
       id="path6-5"
       inkscape:connector-curvature="0"
       style="fill:#d91e25;fill-opacity:1" />
  </g>
</svg>
